X: 305597
M: 6/8
L: 1/8
K: G
d2B d2B | G2G GAB | c2A c2A | FGA D3 |\
d2B g2d | e2c g2e | dec BcA | G2G G2 :|
|: D |\
ece ege | dBd dgd | edc BcA | G2G G2 :|


